movej([3.124066,-1.554993,1.571898,1.555010,1.574337,-0.008006], a=0.350000, v=0.250000)
movej([3.109106,-1.542150,1.574592,1.540834,1.574707,-0.020237], a=0.350000, v=0.250000)
movej([3.094908,-1.528666,1.576400,1.525872,1.574715,-0.033848], a=0.350000, v=0.250000)
movej([3.081309,-1.514700,1.577041,1.511216,1.574697,-0.047886], a=0.350000, v=0.250000)
movej([3.068398,-1.500003,1.576817,1.496918,1.574841,-0.061958], a=0.350000, v=0.250000)
movej([3.055901,-1.484709,1.575900,1.482462,1.574875,-0.076075], a=0.350000, v=0.250000)
movej([3.043775,-1.468609,1.573711,1.468160,1.574885,-0.090013], a=0.350000, v=0.250000)
movej([3.031989,-1.452465,1.571524,1.454585,1.574784,-0.103649], a=0.350000, v=0.250000)
movej([3.020749,-1.435718,1.568219,1.441025,1.574500,-0.116698], a=0.350000, v=0.250000)
movej([3.009875,-1.418900,1.564339,1.428169,1.574207,-0.129115], a=0.350000, v=0.250000)
movej([2.999495,-1.401642,1.559946,1.414976,1.574093,-0.140558], a=0.350000, v=0.250000)
movej([2.989402,-1.383827,1.554892,1.402515,1.574007,-0.151188], a=0.350000, v=0.250000)
movej([2.979626,-1.365918,1.549046,1.390133,1.573869,-0.161380], a=0.350000, v=0.250000)
movej([2.970217,-1.347556,1.542380,1.378157,1.573668,-0.171147], a=0.350000, v=0.250000)
movej([2.961125,-1.329321,1.535238,1.366088,1.573567,-0.180622], a=0.350000, v=0.250000)
movej([2.952248,-1.310420,1.527147,1.354708,1.573533,-0.189717], a=0.350000, v=0.250000)
movej([2.943839,-1.291338,1.518623,1.343519,1.573207,-0.198628], a=0.350000, v=0.250000)
movej([2.935712,-1.272275,1.509864,1.332708,1.573352,-0.207126], a=0.350000, v=0.250000)
movej([2.928010,-1.252676,1.500037,1.322763,1.573402,-0.215440], a=0.350000, v=0.250000)
movej([2.920574,-1.233241,1.489876,1.312677,1.573409,-0.223207], a=0.350000, v=0.250000)
movej([2.913276,-1.213451,1.478567,1.303486,1.573567,-0.230345], a=0.350000, v=0.250000)
movej([2.906255,-1.193334,1.466655,1.294922,1.573661,-0.237373], a=0.350000, v=0.250000)
movej([2.899349,-1.173415,1.454234,1.286787,1.573456,-0.244162], a=0.350000, v=0.250000)
movej([2.892708,-1.153194,1.441009,1.279196,1.573240,-0.250648], a=0.350000, v=0.250000)
movej([2.892726,-1.153079,1.438446,1.276115,1.576423,-0.256257], a=0.350000, v=0.250000)
movej([2.892640,-1.152916,1.438179,1.276167,1.576410,-0.258160], a=0.350000, v=0.250000)
movej([2.892693,-1.152934,1.438246,1.276108,1.576341,-0.258653], a=0.350000, v=0.250000)
movej([2.892659,-1.152947,1.438308,1.276121,1.576121,-0.258753], a=0.350000, v=0.250000)
movej([2.892615,-1.152950,1.438358,1.276136,1.575944,-0.258723], a=0.350000, v=0.250000)
movej([2.892670,-1.152889,1.438367,1.276231,1.575886,-0.258767], a=0.350000, v=0.250000)
movej([2.892603,-1.152872,1.438327,1.276201,1.575754,-0.258614], a=0.350000, v=0.250000)
movej([2.892607,-1.152727,1.438309,1.276653,1.575534,-0.258604], a=0.350000, v=0.250000)
movej([2.892561,-1.152846,1.438463,1.276755,1.575605,-0.258578], a=0.350000, v=0.250000)
movej([2.892555,-1.152756,1.438316,1.276860,1.575510,-0.258528], a=0.350000, v=0.250000)
movej([2.892571,-1.152865,1.438422,1.276817,1.575206,-0.258400], a=0.350000, v=0.250000)
movej([2.892517,-1.152737,1.438278,1.276986,1.575265,-0.258334], a=0.350000, v=0.250000)
movej([2.892527,-1.152789,1.438364,1.277086,1.575093,-0.258320], a=0.350000, v=0.250000)
movej([2.892530,-1.152583,1.438205,1.277586,1.575107,-0.258155], a=0.350000, v=0.250000)
movej([2.892480,-1.152606,1.438234,1.277802,1.575014,-0.258134], a=0.350000, v=0.250000)
movej([2.892496,-1.152602,1.438236,1.277765,1.574890,-0.258023], a=0.350000, v=0.250000)
movej([2.892447,-1.152605,1.438257,1.277818,1.574667,-0.258041], a=0.350000, v=0.250000)
movej([2.892491,-1.152544,1.438220,1.277896,1.574646,-0.258003], a=0.350000, v=0.250000)
movej([2.892431,-1.152510,1.438249,1.277943,1.574478,-0.257912], a=0.350000, v=0.250000)
movej([2.892468,-1.152311,1.438121,1.278373,1.574414,-0.257840], a=0.350000, v=0.250000)
movej([2.892456,-1.152392,1.438244,1.278458,1.574398,-0.257768], a=0.350000, v=0.250000)
movej([2.892446,-1.152279,1.438068,1.278580,1.574307,-0.257677], a=0.350000, v=0.250000)
movej([2.892406,-1.152339,1.438259,1.278642,1.574097,-0.257660], a=0.350000, v=0.250000)
movej([2.892403,-1.152248,1.438068,1.278751,1.573957,-0.257577], a=0.350000, v=0.250000)
movej([2.892509,-1.150945,1.438116,1.272902,1.576888,-0.263003], a=0.350000, v=0.250000)
movej([2.892519,-1.150077,1.440996,1.268469,1.577025,-0.264863], a=0.350000, v=0.250000)
movej([2.892570,-1.149166,1.443873,1.264501,1.577048,-0.265408], a=0.350000, v=0.250000)
movej([2.892619,-1.148161,1.446659,1.260744,1.576775,-0.265462], a=0.350000, v=0.250000)
movej([2.892679,-1.146815,1.449127,1.257383,1.576882,-0.265408], a=0.350000, v=0.250000)
movej([2.892713,-1.145875,1.451781,1.253748,1.577239,-0.265414], a=0.350000, v=0.250000)
movej([2.892772,-1.144774,1.454533,1.250021,1.577115,-0.265295], a=0.350000, v=0.250000)
movej([2.892802,-1.143600,1.457263,1.246215,1.577100,-0.265359], a=0.350000, v=0.250000)
movej([2.892786,-1.142666,1.460125,1.242475,1.577147,-0.265191], a=0.350000, v=0.250000)
movej([2.892913,-1.141436,1.462663,1.238700,1.577079,-0.265215], a=0.350000, v=0.250000)
movej([2.892877,-1.140529,1.465417,1.234865,1.577182,-0.265023], a=0.350000, v=0.250000)
movej([2.892987,-1.139213,1.467908,1.231215,1.577140,-0.265020], a=0.350000, v=0.250000)
movej([2.892976,-1.138135,1.470720,1.227406,1.577220,-0.265028], a=0.350000, v=0.250000)
movej([2.893000,-1.137042,1.473274,1.223682,1.577229,-0.264979], a=0.350000, v=0.250000)
movej([2.893078,-1.135824,1.475862,1.219910,1.577096,-0.264830], a=0.350000, v=0.250000)
movej([2.893028,-1.134698,1.478341,1.216128,1.577269,-0.264697], a=0.350000, v=0.250000)
movej([2.893119,-1.133384,1.480951,1.212408,1.577182,-0.264713], a=0.350000, v=0.250000)
movej([2.893106,-1.132244,1.483414,1.208622,1.577360,-0.264658], a=0.350000, v=0.250000)
movej([2.893165,-1.130964,1.485833,1.204963,1.577359,-0.264567], a=0.350000, v=0.250000)
movej([2.893147,-1.129672,1.488263,1.201312,1.577293,-0.264563], a=0.350000, v=0.250000)
movej([2.893260,-1.128364,1.490640,1.197571,1.577171,-0.264489], a=0.350000, v=0.250000)
movej([2.893196,-1.127332,1.493549,1.193741,1.577321,-0.264585], a=0.350000, v=0.250000)
movej([2.893225,-1.125961,1.495708,1.189975,1.577159,-0.264389], a=0.350000, v=0.250000)
movej([2.893292,-1.124674,1.498241,1.186274,1.577309,-0.264480], a=0.350000, v=0.250000)
movej([2.893493,-1.123254,1.495053,1.182978,1.579629,-0.107400], a=0.350000, v=0.250000, t=0.050000, r=0.000000)
movej([2.893632,-1.123286,1.496925,1.182102,1.580341,0.049679], a=0.350000, v=0.250000, t=0.050000, r=0.000000)
movej([2.893723,-1.122682,1.498446,1.182078,1.581296,0.206759], a=0.350000, v=0.250000, t=0.050000, r=0.000000)
movej([2.893849,-1.121641,1.499082,1.182501,1.582421,0.363839], a=0.350000, v=0.250000, t=0.050000, r=0.000000)
movej([2.893852,-1.120931,1.499615,1.182885,1.583751,0.520918], a=0.350000, v=0.250000, t=0.050000, r=0.000000)
movej([2.894068,-1.120264,1.499803,1.183197,1.586297,0.677998], a=0.350000, v=0.250000, t=0.050000, r=0.000000)
movej([2.894375,-1.120374,1.501668,1.182486,1.589252,0.835077], a=0.350000, v=0.250000, t=0.050000, r=0.000000)
movej([2.894502,-1.119912,1.503056,1.182575,1.590317,0.992157], a=0.350000, v=0.250000, t=0.050000, r=0.000000)
movej([2.894270,-1.119045,1.503678,1.184033,1.589626,1.149237], a=0.350000, v=0.250000, t=0.050000, r=0.000000)
movej([2.894047,-1.118155,1.504006,1.185778,1.587106,1.306316], a=0.350000, v=0.250000, t=0.050000, r=0.000000)
movej([2.893888,-1.117159,1.503920,1.187238,1.584755,1.463396], a=0.350000, v=0.250000, t=0.050000, r=0.000000)
movej([2.893755,-1.115910,1.503828,1.188583,1.582784,1.620476], a=0.350000, v=0.250000, t=0.050000, r=0.000000)
movej([2.893608,-1.114849,1.503858,1.188993,1.580416,1.777555], a=0.350000, v=0.250000, t=0.050000, r=0.000000)
movej([2.893564,-1.113797,1.504032,1.189365,1.577859,1.934635], a=0.350000, v=0.250000, t=0.050000, r=0.000000)
movej([2.893495,-1.113005,1.504474,1.189033,1.574921,2.091715], a=0.350000, v=0.250000, t=0.050000, r=0.000000)
movej([2.893347,-1.112548,1.504847,1.188105,1.572213,2.248794], a=0.350000, v=0.250000, t=0.050000, r=0.000000)
movej([2.892970,-1.112416,1.505549,1.186770,1.570596,2.405874], a=0.350000, v=0.250000, t=0.050000, r=0.000000)
movej([2.892515,-1.112326,1.506441,1.186318,1.569934,2.562953], a=0.350000, v=0.250000, t=0.050000, r=0.000000)
movej([2.892066,-1.111923,1.506913,1.186426,1.569305,2.720033], a=0.350000, v=0.250000, t=0.050000, r=0.000000)
movej([2.891657,-1.111663,1.507916,1.185402,1.567560,2.877113], a=0.350000, v=0.250000, t=0.050000, r=0.000000)
movej([2.891317,-1.110843,1.508083,1.184570,1.565832,3.034192], a=0.350000, v=0.250000, t=0.050000, r=0.000000)
movej([2.890950,-1.110227,1.508972,1.182149,1.563413,3.191272], a=0.350000, v=0.250000, t=0.050000, r=0.000000)
movej([2.890654,-1.109907,1.510150,1.179227,1.562662,3.348352], a=0.350000, v=0.250000, t=0.050000, r=0.000000)
movej([2.890473,-1.109127,1.511747,1.177854,1.561570,3.505431], a=0.350000, v=0.250000, t=0.050000, r=0.000000)
movej([2.890532,-1.109041,1.513957,1.173837,1.563366,3.662511], a=0.350000, v=0.250000, t=0.050000, r=0.000000)
movej([2.890829,-1.109275,1.516282,1.167782,1.567905,3.819590], a=0.350000, v=0.250000, t=0.050000, r=0.000000)
movej([2.891169,-1.109929,1.518408,1.161739,1.570209,3.976670], a=0.350000, v=0.250000, t=0.050000, r=0.000000)
movej([2.891510,-1.110324,1.519934,1.155738,1.571218,4.133750], a=0.350000, v=0.250000, t=0.050000, r=0.000000)
movej([2.891809,-1.110305,1.521572,1.149882,1.572007,4.290829], a=0.350000, v=0.250000, t=0.050000, r=0.000000)
movej([2.891843,-1.110291,1.523000,1.144100,1.573375,4.447909], a=0.350000, v=0.250000, t=0.050000, r=0.000000)
movej([2.891942,-1.110151,1.524564,1.139830,1.573809,4.604989], a=0.350000, v=0.250000, t=0.050000, r=0.000000)
movej([2.892049,-1.109929,1.525626,1.136984,1.574459,4.762068], a=0.350000, v=0.250000, t=0.050000, r=0.000000)
movej([2.892203,-1.109919,1.527018,1.134110,1.575383,4.919148], a=0.350000, v=0.250000, t=0.050000, r=0.000000)
movej([2.892330,-1.109534,1.527721,1.131720,1.576520,5.076228], a=0.350000, v=0.250000, t=0.050000, r=0.000000)
movej([2.892427,-1.109031,1.528273,1.129608,1.579539,5.233307], a=0.350000, v=0.250000, t=0.050000, r=0.000000)
movej([2.892532,-1.108735,1.529488,1.127152,1.582421,5.390387], a=0.350000, v=0.250000, t=0.050000, r=0.000000)
movej([2.892650,-1.108327,1.530427,1.124996,1.584986,5.547466], a=0.350000, v=0.250000, t=0.050000, r=0.000000)
movej([2.892897,-1.107441,1.530960,1.123164,1.588804,5.704546], a=0.350000, v=0.250000, t=0.050000, r=0.000000)
movej([2.892899,-1.106846,1.531855,1.122594,1.596220,5.861626], a=0.350000, v=0.250000, t=0.050000, r=0.000000)
movej([2.893091,-1.105159,1.523920,1.134604,1.583210,6.018705], a=0.350000, v=0.250000, t=0.050000, r=0.000000)
movej([2.892911,-1.108954,1.515708,1.139654,1.588678,-0.198325], a=0.350000, v=0.250000)
movej([2.892820,-1.113218,1.509643,1.146667,1.587178,-0.246072], a=0.350000, v=0.250000)
movej([2.892878,-1.117237,1.503772,1.155877,1.587031,-0.264299], a=0.350000, v=0.250000)
movej([2.892870,-1.121113,1.497490,1.165837,1.586899,-0.269785], a=0.350000, v=0.250000)
movej([2.892942,-1.124867,1.491271,1.175959,1.586812,-0.271349], a=0.350000, v=0.250000)
movej([2.892962,-1.128579,1.485184,1.185900,1.586740,-0.271841], a=0.350000, v=0.250000)
movej([2.893018,-1.132289,1.478934,1.195967,1.586756,-0.272110], a=0.350000, v=0.250000)
movej([2.893029,-1.135937,1.472858,1.205770,1.586698,-0.272093], a=0.350000, v=0.250000)
movej([2.893029,-1.139357,1.466007,1.215830,1.586644,-0.272141], a=0.350000, v=0.250000)
movej([2.893063,-1.142541,1.459349,1.225792,1.586616,-0.272187], a=0.350000, v=0.250000)
movej([2.893116,-1.145747,1.452611,1.235877,1.586605,-0.272208], a=0.350000, v=0.250000)
movej([2.893036,-1.148991,1.445856,1.245860,1.586554,-0.272404], a=0.350000, v=0.250000)
movej([2.893080,-1.151987,1.438856,1.255992,1.586610,-0.272634], a=0.350000, v=0.250000)
movej([2.893026,-1.154889,1.431599,1.266262,1.586608,-0.272758], a=0.350000, v=0.250000)
movej([2.893001,-1.157519,1.424308,1.276378,1.586538,-0.272855], a=0.350000, v=0.250000)
movej([2.892977,-1.160038,1.416827,1.286541,1.586536,-0.272986], a=0.350000, v=0.250000)
movej([2.892886,-1.162491,1.409069,1.296810,1.586417,-0.272889], a=0.350000, v=0.250000)
movej([2.892865,-1.164862,1.401230,1.307005,1.586366,-0.273000], a=0.350000, v=0.250000)
movej([2.892832,-1.167198,1.393754,1.317229,1.586338,-0.273160], a=0.350000, v=0.250000)
movej([2.892797,-1.169381,1.385535,1.327648,1.586112,-0.273181], a=0.350000, v=0.250000)
movej([2.892766,-1.171561,1.377646,1.337880,1.586152,-0.273239], a=0.350000, v=0.250000)
movej([2.892762,-1.173485,1.369562,1.348178,1.585961,-0.273289], a=0.350000, v=0.250000)
movej([2.892810,-1.175261,1.360973,1.358515,1.585867,-0.273201], a=0.350000, v=0.250000)
movej([2.892811,-1.177085,1.352576,1.368786,1.585846,-0.273089], a=0.350000, v=0.250000)
movej([2.886743,-1.204301,1.384726,1.362698,1.589379,-0.284249], a=0.350000, v=0.250000)
movej([2.880481,-1.232928,1.420975,1.356765,1.589310,-0.292708], a=0.350000, v=0.250000)
movej([2.873736,-1.261492,1.454952,1.350948,1.588966,-0.300022], a=0.350000, v=0.250000)
movej([2.866675,-1.290001,1.488751,1.345756,1.588983,-0.307159], a=0.350000, v=0.250000)
movej([2.859089,-1.318690,1.521745,1.341442,1.589103,-0.314559], a=0.350000, v=0.250000)
movej([2.851217,-1.347142,1.553628,1.338074,1.589401,-0.322139], a=0.350000, v=0.250000)
movej([2.842767,-1.375509,1.584470,1.336002,1.589209,-0.330007], a=0.350000, v=0.250000)
movej([2.833514,-1.404222,1.614934,1.334561,1.588917,-0.338373], a=0.350000, v=0.250000)
movej([2.823690,-1.432920,1.644404,1.334605,1.588761,-0.347039], a=0.350000, v=0.250000)
movej([2.813459,-1.461751,1.673062,1.335155,1.588869,-0.356226], a=0.350000, v=0.250000)
movej([2.802430,-1.491120,1.701846,1.336422,1.588549,-0.366149], a=0.350000, v=0.250000)
movej([2.790668,-1.520453,1.729096,1.338899,1.588544,-0.376307], a=0.350000, v=0.250000)
movej([2.777926,-1.550202,1.756017,1.342027,1.588582,-0.387317], a=0.350000, v=0.250000)
movej([2.764324,-1.580339,1.782279,1.346179,1.588247,-0.399153], a=0.350000, v=0.250000)
movej([2.749789,-1.611180,1.808101,1.351599,1.587827,-0.411567], a=0.350000, v=0.250000)
movej([2.733938,-1.642320,1.833336,1.357626,1.587413,-0.425071], a=0.350000, v=0.250000)
movej([2.717020,-1.673447,1.857479,1.365152,1.586448,-0.439401], a=0.350000, v=0.250000)
movej([2.698551,-1.705566,1.881053,1.373331,1.585743,-0.454896], a=0.350000, v=0.250000)
movej([2.678387,-1.738100,1.904207,1.382164,1.584275,-0.471408], a=0.350000, v=0.250000)
movej([2.655523,-1.771349,1.926509,1.392461,1.582741,-0.489326], a=0.350000, v=0.250000)
movej([2.630615,-1.805528,1.948176,1.403980,1.581269,-0.509163], a=0.350000, v=0.250000)
movej([2.603178,-1.839999,1.968731,1.417099,1.579366,-0.531589], a=0.350000, v=0.250000)
movej([2.571855,-1.875292,1.988572,1.431868,1.577129,-0.557089], a=0.350000, v=0.250000)
movej([2.536044,-1.911945,2.007949,1.448357,1.574426,-0.587799], a=0.350000, v=0.250000)
